material/.icons/material/page-previous.svg

<svg xmlns="http://www.w3.org/2000/svg" viewBox="0 0 24 24"><path d="M4 21h15a2 2 0 002-2v-6h-4v2l-4-3 4-3v2h4V5a2 2 0 00-2-2H4a2 2 0 00-2 2v14a2 2 0 002 2m0-6h4v2H4v-2m0-4h7v2H4v-2m0-4h7v2H4V7m17 4h3v2h-3v-2z"/></svg>

<?xml version="1.0" encoding="UTF-8"?><!DOCTYPE svg PUBLIC "-//W3C//DTD SVG 1.1//EN" "http://www.w3.org/Graphics/SVG/1.1/DTD/svg11.dtd"><svg xmlns="http://www.w3.org/2000/svg" xmlns:xlink="http://www.w3.org/1999/xlink" version="1.1" id="mdi-page-previous" width="24" height="24" viewBox="0 0 24 24"><path d="M4,21H19A2,2 0 0,0 21,19V13H17V15L13,12L17,9V11H21V5A2,2 0 0,0 19,3H4A2,2 0 0,0 2,5V19A2,2 0 0,0 4,21M4,15H8V17H4V15M4,11H11V13H4V11M4,7H11V9H4V7M21,11H24V13H21V11Z" /></svg>
